X:1
T:Title
%%score { 1 | ( 2 3 ) }
L:1/8
M:3/4
K:Eb
V:1 treble nm="Grand Piano"
V:2 bass 
V:3 bass 
V:1
 z2 z2[Q:1/4=116] G2 | B4 B2 | E4 EE | [CEA]4 [CE]2 | G4 G2 | F2 F2 F2 | =A4 F2 | [DB]6- | %8
[M:2/4] [DB]2 z2 |[M:1/4] [DB]2 |[M:3/4] B4 B2 | E4 EE | [CEA]4 [=B,E]2 | [B,EG]4 [E=A]2 | %14
 [DB]2 [DB]2 E2 | [EG]4 [DF]2 | E6- |[M:2/4] E2 z2 |[M:1/4] G2 |[M:3/4] B4 G2 | [Ge]4 [Ge]>[Ge] | %21
 e2 d2 c2 | B4 B2 | B2 A2 G2 | c4 F2 | [DF]6- |[M:2/4] [DF]2 z2 |[M:1/4] [DB]2 | %28
[M:3/4] [EB]4 [EG]2 | [Ge]4 [Ge]>[Ge] | e2 d2 c2 | B4 E2 | F2 G2 A2 | [EG]4 F2 | E6- | %35
[M:2/4] E2 z2 |] %36
V:2
 z2 z2 [E,E]2 | [E,G,E]4 [E,G,E]2 | [E,G,]4 [C,G,][C,G,] | A,,4 A,,2 | [E,B,E]4 [E,B,E]2 | %5
 [F,B,D]2 [F,B,D]2 [F,=A,C]2 | [F,CE]4 [F,=A,E]2 | [B,,B,]6- |[M:2/4] [B,,B,]2 z2 | %9
[M:1/4] [B,,A,]2 |[M:3/4] [E,G,E]4 [E,G,E]2 | [E,G,]4 [C,G,][C,G,] | A,,4 A,,2 | E,4 [C,F,]2 | %14
 [B,,F,]2 [B,,F,]2 [B,,G,]2 | [B,,B,]4 [B,,A,]2 | [E,G,]6- |[M:2/4] [E,G,]2 z2 |[M:1/4] [E,B,E]2 | %19
[M:3/4] [E,G,E]4 [E,B,E]2 | [E,B,]4 [E,B,]>[E,B,] | [A,A]4[K:bass] z2 | [E,G,E]4 [E,G,E]2 | %23
 [E,G,E]2 [E,CE]2 [E,B,E]2 | [F,=A,E]4 [F,A,E]2 | [B,,B,]6- |[M:2/4] [B,,B,]2 z2 | %27
[M:1/4] [B,,A,]2 |[M:3/4] [E,G,]4 [E,B,]2 | [E,B,]4 [E,B,]>[E,B,] | [A,A]4[K:bass] z2 | %31
 [E,G,E]4 [G,B,]2 | [A,CE]2 [G,B,E]2 [F,B,D]2 | [B,,B,]4 [B,,A,B,]2 | [E,G,B,]6- | %35
[M:2/4] [E,G,B,]2 z2 |] %36
V:3
 x6 | x6 | x6 | x6 | x6 | x6 | x6 | x6 |[M:2/4] x4 |[M:1/4] x2 |[M:3/4] x6 | x6 | x6 | x6 | x6 | %15
 x6 | x6 |[M:2/4] x4 |[M:1/4] x2 |[M:3/4] x6 | x6 | C2 B,2[K:bass] [A,E]2 | x6 | x6 | x6 | x6 | %26
[M:2/4] x4 |[M:1/4] x2 |[M:3/4] x6 | x6 | C2 B,2[K:bass] [A,E]2 | x6 | x6 | x6 | x6 |[M:2/4] x4 |] %36

